icon-themes/breeze_svg/cmd/lc_inserthyperlink.svg

<svg viewBox="0 0 24 24" xmlns="http://www.w3.org/2000/svg"><path d="m7 6v2h-3v1h3v2h4v-1h-3v-3h3v-1zm6 0v1h3v3h-3v1h4v-2h3v-1h-3v-2zm-2 2v1h2v-1z" fill="#4d4d4d"/><path d="m17 15v2h-2v1h2v2h1v-2h2v-1h-2v-2z" fill="#1d99f3"/></svg>

<svg xmlns="http://www.w3.org/2000/svg" viewBox="0 0 24 24">
 <path 
     style="fill:#4d4d4d" 
     d="M 7 6 L 7 8 L 4 8 L 4 9 L 7 9 L 7 11 L 11 11 L 11 10 L 8 10 L 8 7 L 11 7 L 11 6 L 7 6 z M 13 6 L 13 7 L 16 7 L 16 10 L 13 10 L 13 11 L 17 11 L 17 9 L 20 9 L 20 8 L 17 8 L 17 6 L 13 6 z M 11 8 L 11 9 L 13 9 L 13 8 L 11 8 z "
     />
 <path 
     style="fill:#1d99f3" 
     d="M 17 15 L 17 17 L 15 17 L 15 18 L 17 18 L 17 20 L 18 20 L 18 18 L 20 18 L 20 17 L 18 17 L 18 15 L 17 15 z "
     />
 </svg>
